X:1
T:Title
%%score { 1 | ( 2 3 ) }
L:1/8
Q:1/4=87
M:6/8
K:F
V:1 treble nm="Grand Piano"
V:2 bass 
V:3 bass 
V:1
 [DF]>[^CE][DF] [B,D][DF][DB] | [Fd][E^c][Fd] [DB]3 | [FB]>[FA][FB] dcB | c3 F3 | %4
w: J.~H.~Tenney * * * * *||||
 [DF]>[^CE][DF] [B,D][DF][DB] | [Fd][E^c][Fd] [G_e]3 | [_EG][Fd]c BAc | [DB]6 | %8
w: ||||
 [Fd]>[E^c][G_e] [Fd][F=c][FB] | [Gc][GB][FA] G3 | c>=Bd c_BA | [GB][FA][EG] F3 | %12
w: ||||
 F>[FB][FA] [_EG][Ec][GB] | Adc B3 | [G_e]>[Fd][Gc] [FB][_EA][Ec] | [DB]6 |] %16
w: ||||
V:2
 [B,,B,]>[B,,B,][B,,B,] [B,,F,][B,,B,][B,,B,] | [B,,B,][B,,B,][B,,B,] [B,,B,]3 | %2
 [D,F,]>[C,F,][B,,F,][K:treble] [B,F][A,CF][G,CE] | F3 _E3 | %4
 [B,,B,]>[B,,B,][B,,B,] [B,,F,][B,,B,][B,,B,] | [B,,B,][B,,B,][B,,B,] [_E,B,]3 | %6
 [_E,B,][E,B,][E,G,_E] [F,D][F,C][F,A,E] | [B,,B,]6 | [B,,B,]>[B,,B,][B,,B,] [B,,B,][C,A,][D,B,] | %9
 [_E,G,][E,B,][E,B,] [E,B,_E]3 | [F,A,_E]>[F,_A,D][F,B,F] [F,=A,F][F,DF][F,CF] | %11
 [C,C][C,C][C,B,] [F,A,]3 | [D,B,]>[D,B,][D,B,] [_E,B,][E,G,][=E,C] | %13
 [F,CF][F,B,F][^F,A,_E] [G,B,D]3 | [C,C]>[D,=B,][_E,C] [E,D][F,C][F,A,] | [B,,B,]6 |] %16
V:3
 x6 | x6 | x3[K:treble] x3 | [F,A,]6 | x6 | x6 | x6 | x6 | x6 | x6 | x6 | x6 | x6 | x6 | x6 | x6 |] %16

